X: 17851
T: Horizonto
R: jig
M: 6/8
K: Dminor
|:aba gaf|gef dec|A2A def|ede cde|
f2f fgf|ede cde|fed edc|A=Bc d3:|
B2B def|B2B def|A2A def|A2A def|
B2B def|B2B def|aba gaf|gef dec|
B2B def|B2B def|A2A def|A2A def|
B2B def|B2B def|=B2B def|=B2B def||
b2 a2 gf|e3 efg|a2 g2 fe|d3 def|
g2 f2 ed|_d3 _dde|f2 g2 _a2|a6|
b2 c'2 b2|e3 efg|a2 b2 a2|d3 def|
g2 f2 ed|_d3 _dde|f2 d2 dc|d6||

